dist/img/svg/auto-ico.svg

<svg width="54" height="39" viewBox="0 0 54 39" fill="none" xmlns="http://www.w3.org/2000/svg">
<path fill-rule="evenodd" clip-rule="evenodd" d="M27.427 19.1266C26.9317 19.1252 26.8509 19.1252 27.427 19.1266V19.1266Z" fill="white"/>
<path d="M27.427 19.1266C26.932 19.1249 26.8512 19.1253 27.427 19.1253L27.427 19.1266Z" fill="white"/>
<path fill-rule="evenodd" clip-rule="evenodd" d="M45.9078 6.34497L53.5846 7.47493V11.5276L45.4949 12.7437L45.3212 11.5877L45.9078 11.4995V6.34497ZM47.0768 11.3238L52.4156 10.5212V8.48446L47.0768 7.69863V11.3238ZM8.09233 6.34811V11.4987L8.6799 11.5867L8.50676 12.7428L0.415527 11.5311V7.47807L8.09233 6.34811ZM6.92333 11.3236V7.70177L1.58453 8.4876V10.5241L6.92333 11.3236Z" fill="white"/>
<path fill-rule="evenodd" clip-rule="evenodd" d="M44.4013 38.0627H47.5565C48.6817 38.0627 49.5927 37.1302 49.5927 35.9813V20.9992C49.5927 18.7989 48.7454 15.4223 47.7096 13.4949L42.3468 3.51385C40.9669 0.965746 38.0113 0.00830078 35.8601 0.00830078H18.5964C16.4439 0.00830078 13.7209 0.810554 12.1072 3.51385L6.74442 13.4949C5.70982 15.4223 4.86255 18.7989 4.86255 20.9992V35.9813C4.86255 37.1302 5.77348 38.0627 6.89868 38.0627H10.0527C10.9844 38.0627 11.7693 37.4244 12.0105 36.5521L12.0472 36.4006V36.3993L12.9471 32.5972H41.5081L42.4056 36.3931L42.408 36.4006L42.4448 36.5521L42.4484 36.5696C42.697 37.4306 43.4781 38.0627 44.4013 38.0627ZM48.0818 35.9812C48.0818 36.3037 47.8462 36.5661 47.5565 36.5661H44.4013C44.1849 36.5661 43.9864 36.4111 43.9097 36.1859L43.8633 35.9947L43.8622 35.9913L42.7059 31.1006H11.7495L10.5648 36.1058L10.5487 36.1723C10.4776 36.405 10.2757 36.5661 10.0526 36.5661H6.89864C6.60896 36.5661 6.37329 36.3037 6.37329 35.9812V20.999C6.37329 19.0338 7.15411 15.919 8.07833 14.1973L13.4241 4.24791C14.8652 1.86168 17.2812 1.50459 18.5963 1.50459H35.86C37.6939 1.50459 39.9992 2.34454 41.0154 4.22105L46.3759 14.1978C47.3006 15.9185 48.0818 19.033 48.0818 20.999V35.9812Z" fill="white"/>
<path fill-rule="evenodd" clip-rule="evenodd" d="M27.4955 17.7583C25.0997 17.765 17.4802 17.7937 16.7733 17.9132C16.6278 17.9372 16.4792 17.9523 16.332 17.9673C15.5391 18.0481 14.7904 18.1244 14.8268 19.553C14.8732 21.2466 15.1803 23.607 15.1803 23.607C15.1803 23.607 15.3578 26.0195 17.2627 26.1744C17.698 26.2095 18.2265 26.2584 18.8225 26.3135C21.0016 26.5151 24.0843 26.8003 26.8211 26.8003C27.1068 26.8003 27.3884 26.7972 27.6651 26.7906C27.9414 26.7972 28.2234 26.8003 28.5087 26.8003C31.2447 26.8003 34.3283 26.5152 36.5088 26.3136C37.1057 26.2584 37.6348 26.2095 38.0707 26.1744C39.9739 26.0195 40.1515 23.607 40.1515 23.607C40.1515 23.607 40.4601 21.2466 40.5049 19.553C40.54 18.1246 39.7913 18.0481 39.0004 17.9674C38.8535 17.9523 38.7051 17.9372 38.5601 17.9132C37.8515 17.7937 30.2337 17.765 27.8346 17.7583H27.4955ZM16.9995 19.4951C17.4305 19.444 20.433 19.3777 27.5004 19.3579H27.8354C34.9018 19.3777 37.9051 19.444 38.3357 19.4951C38.5239 19.5257 38.6992 19.5436 38.8544 19.5594L38.866 19.5606C38.9026 19.5644 38.9433 19.5685 38.9848 19.5731C38.9371 21.1512 38.6497 23.3664 38.6467 23.3889L38.6383 23.4533L38.6373 23.4773C38.6247 23.5933 38.567 23.917 38.4309 24.1925C38.2516 24.5552 38.0798 24.5692 37.9543 24.5794C37.5111 24.6151 36.9854 24.6637 36.3766 24.72L36.3756 24.7201C34.1821 24.9229 31.1784 25.2006 28.5095 25.2006C28.2305 25.2006 27.9583 25.1975 27.7004 25.1913L27.6659 25.1904L27.6313 25.1913C27.373 25.1975 27.1007 25.2006 26.8219 25.2006C24.1517 25.2006 21.1489 24.9228 18.9563 24.7199L18.954 24.7197C18.347 24.6636 17.8228 24.6151 17.3795 24.5793C17.2545 24.5692 17.082 24.5551 16.9025 24.1922C16.7658 23.9159 16.7082 23.5912 16.6958 23.4762L16.6928 23.4189L16.6867 23.39C16.6838 23.3675 16.3982 21.1553 16.3486 19.5731C16.3946 19.5681 16.4397 19.5635 16.4792 19.5594C16.6359 19.5435 16.8135 19.5254 16.9995 19.4951Z" fill="white"/>
<path fill-rule="evenodd" clip-rule="evenodd" d="M40.571 19.7851C41.8168 19.6584 43.0469 19.3996 44.242 19.0127L44.6021 20.1249C43.3308 20.5365 42.022 20.8121 40.6962 20.9474C39.1074 21.147 37.5096 21.2597 35.9093 21.2849L35.8909 20.116C37.4508 20.0915 39.0084 19.9815 40.5571 19.7866L40.571 19.7851Z" fill="white"/>
<path fill-rule="evenodd" clip-rule="evenodd" d="M43.9597 21.5184L43.5845 18.0371L44.7467 17.9119L45.122 21.3931L43.9597 21.5184Z" fill="white"/>
<path fill-rule="evenodd" clip-rule="evenodd" d="M13.0112 20.943C11.6847 20.8093 10.3751 20.5351 9.10291 20.1248L9.46175 19.0122C10.6578 19.398 11.8888 19.6554 13.1353 19.7806L13.1426 19.7813L13.1499 19.7822C14.6991 19.9771 16.2571 20.0871 17.8175 20.1116L17.799 21.2805C16.1985 21.2553 14.6003 21.1426 13.0112 20.943Z" fill="white"/>
<path fill-rule="evenodd" clip-rule="evenodd" d="M8.58228 21.3931L8.95751 17.9119L10.1198 18.0371L9.74454 21.5184L8.58228 21.3931Z" fill="white"/>
</svg>

<svg width="54" height="39" viewBox="0 0 54 39" fill="none" xmlns="http://www.w3.org/2000/svg"><path fill-rule="evenodd" clip-rule="evenodd" d="M27.427 19.127c-.495-.002-.576-.002 0 0z" fill="#fff"/><path d="M27.427 19.127c-.495-.002-.576-.002 0-.002v.002z" fill="#fff"/><path fill-rule="evenodd" clip-rule="evenodd" d="M45.908 6.345l7.677 1.13v4.053l-8.09 1.216-.174-1.156.587-.088V6.344zm1.169 4.979l5.339-.803V8.484l-5.34-.785v3.625zM8.092 6.348v5.15l.588.089-.173 1.156L.416 11.53V7.478l7.676-1.13zm-1.169 4.976V7.702l-5.338.786v2.036l5.338.8z" fill="#fff"/><path fill-rule="evenodd" clip-rule="evenodd" d="M44.401 38.063h3.155c1.126 0 2.037-.933 2.037-2.082V21c0-2.2-.848-5.577-1.883-7.504l-5.363-9.981C40.967.966 38.01.008 35.86.008H18.596c-2.152 0-4.875.803-6.489 3.506l-5.363 9.98C5.71 15.423 4.863 18.8 4.863 21v14.982c0 1.15.91 2.082 2.036 2.082h3.154a2.04 2.04 0 001.957-1.51l.037-.152V36.4l.9-3.802h28.561l.898 3.796.002.008.037.151.003.018c.249.86 1.03 1.493 1.953 1.493zm3.68-2.082c0 .323-.235.585-.525.585h-3.155c-.216 0-.415-.155-.491-.38l-.047-.191v-.004l-1.157-4.89H11.749l-1.184 5.005-.016.066a.535.535 0 01-.496.394H6.899c-.29 0-.526-.262-.526-.585V21c0-1.965.781-5.08 1.705-6.802l5.346-9.95c1.441-2.385 3.857-2.742 5.172-2.742H35.86c1.834 0 4.14.84 5.155 2.716l5.36 9.977c.926 1.72 1.707 4.835 1.707 6.801v14.982z" fill="#fff"/><path fill-rule="evenodd" clip-rule="evenodd" d="M27.495 17.758c-2.395.007-10.015.036-10.722.155-.145.024-.294.04-.441.054-.793.081-1.542.157-1.505 1.586.046 1.694.353 4.054.353 4.054s.178 2.413 2.083 2.567c.435.035.963.084 1.56.14 2.179.201 5.261.486 7.998.486.286 0 .567-.003.844-.01.276.007.558.01.844.01 2.736 0 5.82-.285 8-.486.597-.056 1.126-.105 1.562-.14 1.903-.154 2.08-2.567 2.08-2.567s.31-2.36.354-4.054c.035-1.428-.714-1.505-1.505-1.586-.147-.015-.295-.03-.44-.054-.709-.12-8.326-.148-10.725-.155h-.34zM17 19.495c.43-.051 3.433-.117 10.5-.137h.335c7.067.02 10.07.086 10.5.137.189.03.364.049.52.064l.011.002.119.012c-.048 1.578-.335 3.793-.338 3.816l-.009.064v.024c-.013.116-.071.44-.207.715-.18.363-.351.377-.477.387-.443.036-.969.085-1.577.141h-.001c-2.194.203-5.198.48-7.866.48-.28 0-.552-.002-.81-.009h-.069c-.258.007-.53.01-.81.01-2.67 0-5.672-.278-7.865-.481h-.002c-.607-.056-1.131-.105-1.575-.14-.125-.01-.297-.025-.477-.388a2.404 2.404 0 01-.206-.716l-.003-.057-.006-.029c-.003-.023-.289-2.235-.338-3.817l.13-.014a8.55 8.55 0 00.52-.064z" fill="#fff"/><path fill-rule="evenodd" clip-rule="evenodd" d="M40.571 19.785a17.747 17.747 0 003.671-.772l.36 1.112a18.86 18.86 0 01-3.906.822c-1.589.2-3.186.313-4.787.338l-.018-1.169a42.745 42.745 0 004.666-.33h.014z" fill="#fff"/><path fill-rule="evenodd" clip-rule="evenodd" d="M43.96 21.518l-.376-3.48 1.163-.126.375 3.481-1.162.125zm-30.949-.575a18.909 18.909 0 01-3.908-.818l.359-1.113a17.74 17.74 0 003.673.769h.008l.007.001a42.77 42.77 0 004.667.33L17.8 21.28a43.97 43.97 0 01-4.788-.338z" fill="#fff"/><path fill-rule="evenodd" clip-rule="evenodd" d="M8.582 21.393l.376-3.481 1.162.125-.375 3.481-1.163-.125z" fill="#fff"/></svg>
